svgs/sharp-light/cabinet-filing.svg

<svg xmlns="http://www.w3.org/2000/svg" viewBox="0 0 448 512"><!--! Font Awesome Pro 6.6.0 by @fontawesome - https://fontawesome.com License - https://fontawesome.com/license (Commercial License) Copyright 2024 Fonticons, Inc. --><path d="M416 240l0-208L32 32l0 208 384 0zM0 480L0 272l0-16 0-16L0 32 0 0 32 0 416 0l32 0 0 32 0 208 0 16 0 16 0 208 0 32-32 0L32 512 0 512l0-32zM32 272l0 208 384 0 0-208L32 272zM144 96l160 0 16 0 0 16 0 32 0 16-32 0 0-16 0-16-128 0 0 16 0 16-32 0 0-16 0-32 0-16 16 0zm0 256l160 0 16 0 0 16 0 32 0 16-32 0 0-16 0-16-128 0 0 16 0 16-32 0 0-16 0-32 0-16 16 0z"/></svg>

<svg xmlns="http://www.w3.org/2000/svg" viewBox="0 0 448 512"><!--! Font Awesome Pro 6.5.2 by @fontawesome - https://fontawesome.com License - https://fontawesome.com/license (Commercial License) Copyright 2024 Fonticons, Inc. --><path d="M416 240V32H32V240H416zM0 480V272 256 240 32 0H32 416h32V32 240v16 16V480v32H416 32 0V480zM32 272V480H416V272H32zM144 96H304h16v16 32 16H288V144 128H160v16 16H128V144 112 96h16zm0 256H304h16v16 32 16H288V400 384H160v16 16H128V400 368 352h16z"/></svg>
